svg/u1f614.svg

<svg viewBox="0 0 128 128" xmlns="http://www.w3.org/2000/svg">
  <g id="gold">
    <radialGradient id="face_1_" cx="63.6" cy="1104.9" gradientTransform="matrix(1 0 0 1 0 -1042)" gradientUnits="userSpaceOnUse" r="56.9597">
      <stop offset="0.5" stop-color="#FDE030"/>
      <stop offset="0.92" stop-color="#F7C02B"/>
      <stop offset="1" stop-color="#F4A223"/>
    </radialGradient>
    <path id="face" d="M63.6,118.8c-27.9,0-58-17.5-58-55.9S35.7,7,63.6,7c15.5,0,29.8,5.1,40.4,14.4 c11.5,10.2,17.6,24.6,17.6,41.5s-6.1,31.2-17.6,41.4C93.4,113.6,79,118.8,63.6,118.8z" fill="url(#face_1_)"/>
    <path d="M111.49,29.67c5.33,8.6,8.11,18.84,8.11,30.23c0,16.9-6.1,31.2-17.6,41.4 c-10.6,9.3-25,14.5-40.4,14.5c-18.06,0-37-7.35-48.18-22.94c10.76,17.66,31,25.94,50.18,25.94c15.4,0,29.8-5.2,40.4-14.5 c11.5-10.2,17.6-24.5,17.6-41.4C121.6,50.16,118.13,38.84,111.49,29.67z" fill="#EB8F00"/>
  </g>
  <g id="facial_expressions">
    <g id="pensive-face">
      <line id="mouth" fill="none" stroke="#35220B" stroke-linecap="round" stroke-linejoin="round" stroke-width="8" x1="53" x2="75" y1="95" y2="95"/>
      <g id="eyes">
        <g id="peepers">
          <path d="M49.6,64l-0.2,0.2l-0.5,0.5c-0.2,0.2-0.4,0.3-0.7,0.6c-0.32,0.26-0.65,0.49-1,0.7 c-0.4,0.2-0.8,0.5-1.2,0.7s-0.9,0.4-1.4,0.6c-0.49,0.18-0.99,0.31-1.5,0.4c-0.53,0.09-1.06,0.12-1.6,0.1h-0.9 c-0.2,0-0.5-0.1-0.7-0.1c-0.51-0.09-1.01-0.22-1.5-0.4c-0.49-0.14-0.96-0.34-1.4-0.6c-0.42-0.2-0.82-0.43-1.2-0.7 c-0.7-0.5-1.3-1-1.7-1.3l-0.6-0.6l-0.2-0.2c-1.29-1.16-3.22-1.24-4.6-0.2c-0.97,0.76-1.3,2.08-0.8,3.2l0.1,0.3 c0.11,0.28,0.25,0.54,0.4,0.8c0.61,1.03,1.35,1.97,2.2,2.8c0.59,0.58,1.23,1.12,1.9,1.6c0.79,0.55,1.62,1.02,2.5,1.4 c0.96,0.44,1.97,0.77,3,1c0.5,0.1,1.1,0.2,1.7,0.3c0.3,0,0.7,0.1,0.8,0.1h0.8c1.11,0,2.21-0.1,3.3-0.3c1.04-0.21,2.04-0.55,3-1 c0.88-0.38,1.71-0.85,2.5-1.4c0.72-0.43,1.36-0.97,1.9-1.6c0.49-0.45,0.93-0.95,1.3-1.5c0.2-0.2,0.3-0.5,0.5-0.7 s0.3-0.4,0.4-0.6c0.17-0.24,0.31-0.51,0.4-0.8l0.1-0.2c0.62-1.4-0.02-3.05-1.42-3.67c-0.12-0.05-0.25-0.1-0.38-0.13 C51.76,62.83,50.45,63.11,49.6,64z" fill="#422B0D"/>
          <path d="M94.51,64.37l-0.2,0.2c-0.16,0.18-0.33,0.35-0.51,0.5l-0.69,0.57c-0.29,0.22-0.62,0.46-1,0.7 s-0.77,0.47-1.2,0.69c-0.44,0.22-0.9,0.41-1.37,0.57c-0.49,0.15-0.99,0.27-1.5,0.37c-0.52,0.08-1.04,0.12-1.57,0.12H86 c-0.26,0-0.31,0-0.41,0L84.89,68c-0.51-0.1-1.01-0.22-1.5-0.37C82.91,67.45,82.45,67.24,82,67c-0.43-0.22-0.83-0.46-1.2-0.69 c-0.59-0.39-1.14-0.83-1.66-1.31l-0.63-0.58l-0.25-0.25C76.98,63,75.05,62.93,73.69,64c-0.99,0.76-1.32,2.12-0.78,3.25l0.15,0.3 c0.13,0.29,0.28,0.57,0.44,0.84c1.03,1.72,2.43,3.19,4.09,4.32c0.79,0.55,1.63,1.02,2.51,1.4c0.98,0.43,2,0.77,3.05,1 c0.55,0.1,1.06,0.2,1.73,0.26c0.31,0,0.67,0.06,0.83,0.06h0.78c1.12-0.02,2.23-0.13,3.33-0.35c1.05-0.23,2.07-0.57,3.05-1 c0.88-0.38,1.72-0.85,2.51-1.4c1.24-0.84,2.34-1.88,3.25-3.07l0.48-0.67l0.4-0.63c0.15-0.24,0.28-0.5,0.39-0.77l0.11-0.25 c0.6-1.43-0.08-3.08-1.51-3.68c-0.1-0.04-0.2-0.08-0.3-0.1C96.91,63.06,95.47,63.4,94.51,64.37z" fill="#422B0D"/>
        </g>
      </g>
    </g>
    <g id="eyebrows">
      <path d="M23.4,46.8c-2.2,0.4-2.3,3.6,0.1,3.7c5.3,0.07,10.42-1.9,14.3-5.5c1.48-1.28,2.73-2.8,3.7-4.5 c0.58-0.83,0.38-1.97-0.45-2.55s-1.97-0.38-2.55,0.45l-0.1,0.1C34.48,42.88,29.19,45.81,23.4,46.8z" fill="#422B0D"/>
      <path d="M89.5,38.4c-0.58-0.83-1.72-1.03-2.55-0.45c-0.83,0.58-1.03,1.72-0.45,2.55 c0.97,1.7,2.22,3.22,3.7,4.5c3.9,3.57,9.01,5.54,14.3,5.5c2.5-0.1,2.3-3.3,0.1-3.7C98.74,45.84,93.41,42.87,89.5,38.4L89.5,38.4" fill="#422B0D"/>
    </g>
  </g>
</svg>

<svg viewBox="0 0 128 128" xmlns="http://www.w3.org/2000/svg">
  <defs>
    <radialGradient id="face_1_" cx="63.6" cy="62.9" gradientUnits="userSpaceOnUse" r="56.9597">
      <stop offset="0.5" stop-color="#FDE030"/>
      <stop offset="0.92" stop-color="#F7C02B"/>
      <stop offset="1" stop-color="#F4A223"/>
    </radialGradient>
  </defs>
  <path id="face" d="M63.6,118.8 C35.7,118.8 5.6,101.3 5.6,62.9 C5.6,24.5 35.7,7 63.6,7 C79.1,7 93.4,12.1 104,21.4 C115.5,31.6 121.6,46 121.6,62.9 C121.6,79.8 115.5,94.1 104,104.3 C93.4,113.6 79,118.8 63.6,118.8 Z" fill="url(#face_1_)"/>
  <path d="M111.49,29.67 C116.82,38.27 119.6,48.51 119.6,59.9 C119.6,76.8 113.5,91.1 102,101.3 C91.4,110.6 77,115.8 61.6,115.8 C43.54,115.8 24.6,108.45 13.42,92.86 C24.18,110.52 44.42,118.8 63.6,118.8 C79,118.8 93.4,113.6 104,104.3 C115.5,94.1 121.6,79.8 121.6,62.9 C121.6,50.16 118.13,38.84 111.49,29.67 Z" fill="#EB8F00"/>
  <path id="mouth" d="M53,91 L75,91 Q76.657,91 77.828,92.172 Q79,93.343 79,95 Q79,96.657 77.828,97.828 Q76.657,99 75,99 L53,99 Q51.343,99 50.172,97.828 Q49,96.657 49,95 Q49,93.343 50.172,92.172 Q51.343,91 53,91 Z" fill="#35220B"/>
  <path d="M49.6,64 L49.4,64.2 L48.9,64.7 C48.7,64.9 48.5,65 48.2,65.3 C47.88,65.56 47.55,65.79 47.2,66 C46.8,66.2 46.4,66.5 46,66.7 C45.6,66.9 45.1,67.1 44.6,67.3 C44.11,67.48 43.61,67.61 43.1,67.7 C42.57,67.79 42.04,67.82 41.5,67.8 L40.6,67.8 C40.4,67.8 40.1,67.7 39.9,67.7 C39.39,67.61 38.89,67.48 38.4,67.3 C37.91,67.16 37.44,66.96 37,66.7 C36.58,66.5 36.18,66.27 35.8,66 C35.1,65.5 34.5,65 34.1,64.7 L33.5,64.1 L33.3,63.9 C32.01,62.74 30.08,62.66 28.7,63.7 C27.73,64.46 27.4,65.78 27.9,66.9 L28,67.2 C28.11,67.48 28.25,67.74 28.4,68 C29.01,69.03 29.75,69.97 30.6,70.8 C31.19,71.38 31.83,71.92 32.5,72.4 C33.29,72.95 34.12,73.42 35,73.8 C35.96,74.24 36.97,74.57 38,74.8 C38.5,74.9 39.1,75 39.7,75.1 C40,75.1 40.4,75.2 40.5,75.2 L41.3,75.2 C42.41,75.2 43.51,75.1 44.6,74.9 C45.64,74.69 46.64,74.35 47.6,73.9 C48.48,73.52 49.31,73.05 50.1,72.5 C50.82,72.07 51.46,71.53 52,70.9 C52.49,70.45 52.93,69.95 53.3,69.4 C53.5,69.2 53.6,68.9 53.8,68.7 C54,68.5 54.1,68.3 54.2,68.1 C54.37,67.86 54.51,67.59 54.6,67.3 L54.7,67.1 C55.32,65.7 54.68,64.05 53.28,63.43 C53.16,63.38 53.03,63.33 52.9,63.3 C51.76,62.83 50.45,63.11 49.6,64 Z" fill="#422B0D"/>
  <path d="M94.51,64.37 L94.31,64.57 C94.15,64.75 93.98,64.92 93.8,65.07 L93.11,65.64 C92.82,65.86 92.49,66.1 92.11,66.34 C91.73,66.58 91.34,66.81 90.91,67.03 C90.47,67.25 90.01,67.44 89.54,67.6 C89.05,67.75 88.55,67.87 88.04,67.97 C87.52,68.05 87,68.09 86.47,68.09 L86,68.09 C85.74,68.09 85.69,68.09 85.59,68.09 L84.89,68 C84.38,67.9 83.88,67.78 83.39,67.63 C82.91,67.45 82.45,67.24 82,67 C81.57,66.78 81.17,66.54 80.8,66.31 C80.21,65.92 79.66,65.48 79.14,65 L78.51,64.42 L78.26,64.17 C76.98,63 75.05,62.93 73.69,64 C72.7,64.76 72.37,66.12 72.91,67.25 L73.06,67.55 C73.19,67.84 73.34,68.12 73.5,68.39 C74.53,70.11 75.93,71.58 77.59,72.71 C78.38,73.26 79.22,73.73 80.1,74.11 C81.08,74.54 82.1,74.88 83.15,75.11 C83.7,75.21 84.21,75.31 84.88,75.37 C85.19,75.37 85.55,75.43 85.71,75.43 L86.49,75.43 C87.61,75.41 88.72,75.3 89.82,75.08 C90.87,74.85 91.89,74.51 92.87,74.08 C93.75,73.7 94.59,73.23 95.38,72.68 C96.62,71.84 97.72,70.8 98.63,69.61 L99.11,68.94 L99.51,68.31 C99.66,68.07 99.79,67.81 99.9,67.54 L100.01,67.29 C100.61,65.86 99.93,64.21 98.5,63.61 C98.4,63.57 98.3,63.53 98.2,63.51 C96.91,63.06 95.47,63.4 94.51,64.37 Z" fill="#422B0D"/>
  <path d="M23.4,46.8 C21.2,47.2 21.1,50.4 23.5,50.5 C28.8,50.57 33.92,48.6 37.8,45 C39.28,43.72 40.53,42.2 41.5,40.5 C42.08,39.67 41.88,38.53 41.05,37.95 C40.22,37.37 39.08,37.57 38.5,38.4 L38.4,38.5 C34.48,42.88 29.19,45.81 23.4,46.8 Z" fill="#422B0D"/>
  <path d="M89.5,38.4 C88.92,37.57 87.78,37.37 86.95,37.95 C86.12,38.53 85.92,39.67 86.5,40.5 C87.47,42.2 88.72,43.72 90.2,45 C94.1,48.57 99.21,50.54 104.5,50.5 C107,50.4 106.8,47.2 104.6,46.8 C98.74,45.84 93.41,42.87 89.5,38.4 L89.5,38.4" fill="#422B0D"/>
</svg>
